assets/static/svgs/logos/logo-lab-full.svg

<svg width="1em" height="auto"  viewBox="0 0 192 64" fill="none" xmlns="http://www.w3.org/2000/svg">
<symbol id="item"
width="1em"
height="auto"
viewBox="0 0 192 64"
fill="none"
>
 <path fill-rule="evenodd" clip-rule="evenodd" d="M22 0.000787908C12.0069 0.0129702 6.81593 0.21351 3.51472 3.51472C0 7.02944 0 12.6863 0 24V40C0 51.3137 0 56.9706 3.51472 60.4853C7.02944 64 12.6863 64 24 64H40C51.3137 64 56.9706 64 60.4853 60.4853C64 56.9706 64 51.3137 64 40C64 49.0921 64 54.5308 65.8242 58.1403L96.2886 27.6759L99.8241 31.2114L99.8178 31.2178L126.359 57.7588C128 54.1498 128 48.7773 128 40C128 51.3137 128 56.9706 131.515 60.4853C135.029 64 140.686 64 152 64H168C179.314 64 184.971 64 188.485 60.4853C189.693 59.2778 190.485 57.8174 191.006 55.9617C190.674 55.9871 190.338 56 190 56H170C162.82 56 157 50.1797 157 43C157 38.3685 159.422 34.3026 163.069 32C159.422 29.6974 157 25.6315 157 21C157 13.8203 162.82 8 170 8H190C190.338 8 190.674 8.01294 191.006 8.03833C190.485 6.1826 189.693 4.72224 188.485 3.51472C184.971 0 179.314 0 168 0H152C140.686 0 135.029 0 131.515 3.51472C128 7.02944 128 12.6863 128 24C128 12.6863 128 7.02944 124.485 3.51472C120.971 0 115.314 0 104 0H88C76.6863 0 71.0294 0 67.5147 3.51472C64 7.02944 64 12.6863 64 24C64 12.6863 64 7.02944 60.4853 3.51472C56.9706 0 51.3137 0 40 0H27V37.5H49.5V42.5H22.5H22V42V0.000787908ZM123.129 61.5999L96.2822 34.7533L69.2161 61.8194C72.8162 64 78.3506 64 88 64H104C113.963 64 119.539 64 123.129 61.5999ZM190 13C190.618 13 191.219 13.07 191.796 13.2025C192 16.0902 192 19.6215 192 24V28.748C191.361 28.9125 190.691 29 190 29H170C165.582 29 162 25.4183 162 21C162 16.5817 165.582 13 170 13H190ZM190 35C190.691 35 191.361 35.0875 192 35.252V40C192 44.3785 192 47.9098 191.796 50.7975C191.219 50.93 190.618 51 190 51H170C165.582 51 162 47.4183 162 43C162 38.5817 165.582 35 170 35H190Z" fill="black"/> 
</symbol>
</svg>

<svg width="1em" height="auto"    viewBox="0 0 192 64" fill="none" xmlns="http://www.w3.org/2000/svg">
<symbol id="item"
width="1em"
height="auto"
viewBox="0 0 192 64"
fill="none"
>
<path fill-rule="evenodd" clip-rule="evenodd" d="M22 0C12.007.014 6.816.215 3.515 3.516 0 7.029 0 12.686 0 24v16c0 11.314 0 16.97 3.515 20.485C7.029 64 12.686 64 24 64h16c11.314 0 16.97 0 20.485-3.515C64 56.971 64 51.314 64 40c0 9.092 0 14.53 1.824 18.14L96.29 27.676l3.535 3.535-.006.007 26.541 26.54C128 54.15 128 48.779 128 40c0 11.314 0 16.97 3.515 20.485C135.029 64 140.686 64 152 64h16c11.314 0 16.971 0 20.485-3.515 1.208-1.207 2-2.668 2.521-4.523-.332.025-.668.038-1.006.038h-20c-7.18 0-13-5.82-13-13a12.99 12.99 0 0 1 6.069-11A12.99 12.99 0 0 1 157 21c0-7.18 5.82-13 13-13h20c.338 0 .674.013 1.006.038-.521-1.855-1.313-3.316-2.521-4.523C184.971 0 179.314 0 168 0h-16c-11.314 0-16.971 0-20.485 3.515C128 7.029 128 12.686 128 24c0-11.314 0-16.97-3.515-20.485C120.971 0 115.314 0 104 0H88C76.686 0 71.03 0 67.515 3.515 64 7.029 64 12.686 64 24c0-11.314 0-16.97-3.515-20.485C56.971 0 51.314 0 40 0H27v37.5h22.5v5H22V0Zm101.129 61.6L96.282 34.753 69.216 61.82C72.816 64 78.351 64 88 64h16c9.963 0 15.539 0 19.129-2.4ZM190 13c.618 0 1.219.07 1.796.203C192 16.09 192 19.622 192 24v4.748a8.012 8.012 0 0 1-2 .252h-20a8 8 0 0 1 0-16h20Zm0 22c.691 0 1.361.087 2 .252V40c0 4.379 0 7.91-.204 10.797A8.016 8.016 0 0 1 190 51h-20a8 8 0 0 1 0-16h20Z" fill="var(--color--bulma-100)"/>
</symbol>
</svg>
